!!!!SEGMENT: Jac3005-Vostre_beaulte.krn
!!!id: Jac3005
!!!AGN: Chanson
!!!SCT: Bernstein (1984)
!!!voices: 3
!!!COM: Jacotin Frontin?
!!!OTL: Vostre beaulté
**kern	**kern	**kern
*part3	*part2	*part1
*staff3	*staff2	*staff1
*I"Bassus	*I"Tenor	*I"Superius
*I'B	*I'T	*I'S
*clefF4	*clefGv2	*clefGv2
*k[b-]	*k[b-]	*k[b-]
*F:	*F:	*F:
*M2/1	*M2/1	*M2/1
*met(C|)	*met(C|)	*met(C|)
=1	=1	=1
2.FF	0F	1.c
4GG	.	.
2AA	.	.
2BB-y	.	[2d
=2	=2	=2
4BB-y	1G	4d]
4AA	.	4c
4GG	.	4B-y
4FF	.	4A
1C	2G	2G
.	2G	[2c
=3	=3	=3
2FF	1.A	4c]
.	.	4B-y
2.F	.	4A
.	.	4G
.	.	2F
4E	.	.
[2D	4G	[2f
.	4F	.
=4	=4	=4
4D]	1F	4f]
4C	.	4e
4BB-y	.	4d
4AA	.	4c
1GG	2r	4B-y
.	.	4A
.	2B-y	2G
=5	=5	=5
1C	1G	2G
.	.	2c
1BB-y	1B-y	2d
.	.	[2f
=6	=6	=6
2r	2.A	4f]
.	.	4e
2.D	.	4d
.	8GL	4c
.	8FJ	.
.	2F	1d
4E	.	.
4F	2A	.
4D	.	.
=7	=7	=7
2E	2.G	0c
1F	.	.
.	4F	.
.	2G	.
2E	2G	.
=8	=8	=8
2F	0F	2r
2.BB-y	.	2.d
4C	.	4e
2D	.	4f
.	.	4d
=9	=9	=9
0C	0c	2e
.	.	1f
.	.	2e
=10	=10	=10
2r	1d	1f
2F	.	.
2G	2B-y	1r
2E	2c	.
=11	=11	=11
2F	1d	2r
2D	.	2F
1C	1e	2G
.	.	[2A
=12	=12	=12
1FF	1f	4A]
.	.	4B-y
.	.	4c
.	.	4A
1r	1d	4B-y
.	.	4c
.	.	4d
.	.	4e
=13	=13	=13
2r	1A	4f
.	.	4g
2F	.	2.a
2F	1c	.
.	.	4g
2E	.	[2g
=14	=14	=14
2F	1F	4g]
.	.	4f
2D	.	1f
1C	1G	.
.	.	2e
=15	=15	=15
1FF	0F	1f
2r	.	1f
2F	.	.
=16	=16	=16
2E	0e	2r
2C	.	2c
2G	.	2B-y
4F	.	2G
4E	.	.
=17	=17	=17
2D	1f	2d
2D	.	4c
.	.	4B-y
2D	2f	2A
2F	2f	2A
=18	=18	=18
2.E	1.g	2G
.	.	2c
8DL	.	.
8CJ	.	.
2D	.	2B-y
2D	2f	[2A
=19	=19	=19
1C	2e	4A]
.	.	4B-y
.	4d	4c
.	4c	4A
2r	2d	2B-y
2F	2d	[2A
=20	=20	=20
2F	1c	2A]
2E	.	2G
[1D	1r	2B-y
.	.	[2A
=21	=21	=21
2D]	1f	2A]
4C	.	1d
4BB-y	.	.
2AA	2f	.
2AA	2e	2c#i
=22	=22	=22
2.BB-y	1.d	2d
.	.	2f
4AA	.	.
2BB-y	.	2f
2C	4c	2e
.	4B-y	.
=23	=23	=23
1D	1.A	1.d
2r	.	.
2D	2d	4c
.	.	4B-y
=24	=24	=24
2.F	2c	1A
.	2d	.
4E	.	.
2F	2c	2r
2G	2B-y	2d
=25	=25	=25
1D	0A	2d
.	.	2d
2r	.	2.c
[2F	.	.
.	.	4B-y
=26	=26	=26
4F]	0F	1A
4E	.	.
4D	.	.
4C	.	.
4D	.	2r
4C	.	.
4BB-y	.	[2d
4AA	.	.
=27	=27	=27
4BB-y	1G	4d]
4AA	.	4c
4GG	.	4B-y
4FF	.	4A
2C	2G	2G
2C	2G	[2c
=28	=28	=28
2FF	1.A	4c]
.	.	4B-y
2.F	.	4A
.	.	4G
.	.	2F
4E	.	.
[2D	4G	[2f
.	4F	.
=29	=29	=29
4D]	1F	4f]
4C	.	4e
4BB-y	.	4d
4AA	.	4c
1GG	2r	4B-y
.	.	4A
.	2B-y	[2G
=30	=30	=30
1C	1G	2G]
.	.	2c
1BB-y	1B-y	2d
.	.	[2f
=31	=31	=31
2r	2.A	4f]
.	.	4e
2.D	.	4d
.	8GL	4c
.	8FJ	.
.	2F	1d
4E	.	.
4F	2A	.
4D	.	.
=32	=32	=32
2E	2.G	0c
1F	.	.
.	4F	.
.	2G	.
2E	2G	.
=33	=33	=33
2F	0F	2r
2.BB-y	.	2.d
4C	.	4e
2D	.	4f
.	.	4d
=34	=34	=34
0C	0c	2e
.	.	1f
.	.	2e
=35	=35	=35
2r	1d	1f
2F	.	.
2G	2B-y	1r
2E	2c	.
=36	=36	=36
2F	1d	2r
2D	.	2F
1C	1e	2G
.	.	[2A
=37	=37	=37
1FF	1f	4A]
.	.	4B-y
.	.	4c
.	.	4A
1r	1d	4B-y
.	.	4c
.	.	4d
.	.	4e
=38	=38	=38
2r	1A	4f
.	.	4g
2F	.	2.a
2F	1c	.
.	.	4g
2E	.	[2g
=39	=39	=39
2F	1F	4g]
.	.	4f
2D	.	1f
1C	1G	.
.	.	2e
=40	=40	=40
00FFl	00Fl	00fl
==	==	==
*-	*-	*-
!!!system-decoration: [*]
!!!RDF**kern: i = editorial accidental
!!!RDF**kern: l = terminal long
!!!ENC: Benjamin Ory
!!!END: 2023/11/26
!!!EED: Benjamin Ory
!!!EEV: 2023/11/26
!!!YEC: Copyright 2023 Benjamin Ory, All Rights Reserved
!!!ONB: Translated from MusicXML on 2023/11/26
